X: 311
M: C
L: 1/8
K: D
d2f>d e2g>e | f>ef>g a2b2 | a>ag>f g>gf>e | fed2 z2fg |\
a2e>e e2f2 | f2 e4 d2 | (3(cde) (3(fed) c2TB2 | A6 :|
|: e2 |\
a2e>e e2f2 | f2 e4 f2 | g2f>e fdaf | Tf2e2 z2A2 |\
d2f>d e2g>e | f>ef>g a2g2 | (3(fga) (3(bag) f2Te2 | d2d>d d2 :|

